!!! OTL: Berkowitz109
!!! Chapter: 1
!!! Section: I
!!! Page: 27
!!! Mode: 
!!! Encoder: DJB
**kern
*staff1
*I"Piano
=1-
*clefF4
*k[f#c#]
*D:
*M4/4
4d\
4A\
4F#\
4A\
=2
4d\
4B\
4G\
4B\
=3
4d\
8e\L
8d\J
8c#\L
8B\
8A\
8G\J
=4
4F#\
8E\L
8D\J
4E\
4r
=5
4F#\
4A\
4D\
4F#\
=6
4G\
4B\
4d\
4B\
=7
4A\
8B\L
8A\J
4G\
8F#\L
8E\J
=8
2F#\
4D\
4r
==
*-
